X: 30778
T: Orville On The Runway
R: jig
M: 6/8
K: Amajor
|:"A"E2A "D"F2A|"A"EAc e2 e|"D"faf ecA|"Bm"dcd BAF|
"A"E2A "D"F2A|"A"EAc e2e|"D"faf "E"eae|1 "A"c2 A A2F:|2 "A"c2A Aef||
K:D
|:"A"g3 gec|Ace gfg|"D"a2f fed|Adf a2f|
[1 "A"g3 gec|Ace gfg|"D"a2f "E"edB|"A"A3 Aef:|
[2 "G"gbg ege|"A"cec ABc|"D"dfb "A"a2c|"D"d3 d3||

